contributed-vectors/legimi.svg

<svg xmlns="http://www.w3.org/2000/svg" xml:space="preserve" style="fill-rule:evenodd;clip-rule:evenodd;stroke-linejoin:round;stroke-miterlimit:2" viewBox="0 0 192 192"><path d="M164.5 21.5c0-5.519-4.481-10-10-10h-133c-5.519 0-10 4.481-10 10v133c0 5.519 4.481 10 10 10h133c5.519 0 10-4.481 10-10v-133Z" style="fill:#73ada4" transform="translate(8 8)"/><path d="M84.461 19.5S49.181 71.135 19.5 97.899V29.5c0-5.519 4.481-10 10-10h54.961Z" style="fill:#54688c"/><path d="M144.162 19.5H162.5c5.519 0 10 4.481 10 10v133c0 5.519-4.481 10-10 10h-50.574l32.236-153Z" style="fill:#96dfd3"/><path d="M44.219 100.264h14.388v6.001H38.169V78.141h6.05v22.123ZM65.191 99.911a5.718 5.718 0 0 0 4.194 1.825 5.742 5.742 0 0 0 5.395-3.784l4.433 3.132c-1.843 3.551-5.554 5.98-9.828 5.98-6.106 0-11.064-4.958-11.064-11.064s4.958-11.064 11.064-11.064c5.281 0 9.703 3.708 10.802 8.66l-14.996 6.315Zm8.436-7.77a5.72 5.72 0 0 0-4.242-1.877 5.738 5.738 0 0 0-5.726 6.074l9.968-4.197ZM95.911 106.154a11.02 11.02 0 0 1-4.398.91c-6.106 0-11.064-4.958-11.064-11.064s4.958-11.064 11.064-11.064c1.629 0 3.177.353 4.57.986l2.634-2.634 3.541 3.541-2.176 2.175A11.019 11.019 0 0 1 102.577 96c0 2.409-.772 4.639-2.081 6.457a11.008 11.008 0 0 1 2.081 6.456c0 6.107-4.958 11.064-11.064 11.064s-11.064-4.957-11.064-11.064h5.872a5.195 5.195 0 0 0 5.192 5.192 5.194 5.194 0 0 0 4.398-7.951Zm-4.398-15.346A5.195 5.195 0 0 1 96.705 96a5.195 5.195 0 0 1-5.192 5.192A5.195 5.195 0 0 1 86.321 96a5.195 5.195 0 0 1 5.192-5.192ZM104.534 85.807h6.019v20.458h-6.019z" style="fill:#fff" transform="matrix(.80486 0 0 .80486 19.066 19.25)"/><circle cx="107.744" cy="80.1" r="3.189" style="fill:#fff" transform="matrix(.75294 0 0 .75294 24.499 23.575)"/><path d="M120.999 93.746v12.465h-6.02V85.894c1.046.185 2.019.661 2.864 1.361a8.76 8.76 0 0 1 5.93-2.303c2.214 0 4.238.82 5.784 2.172a8.763 8.763 0 0 1 5.785-2.172c4.853 0 8.793 3.94 8.793 8.794v12.519h-6.019V93.746a2.776 2.776 0 0 0-2.774-2.775 2.776 2.776 0 0 0-2.775 2.775v12.519h-6.019V93.746a2.777 2.777 0 0 0-2.775-2.775 2.776 2.776 0 0 0-2.774 2.775Z" style="fill:#fff" transform="matrix(.80486 0 0 .80486 19.066 19.25)"/><path d="M104.534 85.807h6.019v20.458h-6.019z" style="fill:#fff" transform="matrix(.80486 0 0 .80486 53.233 19.222)"/><circle cx="149.995" cy="80.1" r="3.01" style="fill:#fff" transform="matrix(.79772 0 0 .79772 20.137 19.988)"/></svg>

<?xml version="1.0" encoding="UTF-8" standalone="no"?>
<!DOCTYPE svg PUBLIC "-//W3C//DTD SVG 1.1//EN" "http://www.w3.org/Graphics/SVG/1.1/DTD/svg11.dtd">
<svg width="100%" height="100%" viewBox="0 0 192 192" version="1.1" xmlns="http://www.w3.org/2000/svg" xmlns:xlink="http://www.w3.org/1999/xlink" xml:space="preserve" xmlns:serif="http://www.serif.com/" style="fill-rule:evenodd;clip-rule:evenodd;stroke-linejoin:round;stroke-miterlimit:2;">
    <g id="Layer1">
        <g transform="matrix(1,0,0,1,8,8)">
            <path d="M164.5,21.5C164.5,15.981 160.019,11.5 154.5,11.5L21.5,11.5C15.981,11.5 11.5,15.981 11.5,21.5L11.5,154.5C11.5,160.019 15.981,164.5 21.5,164.5L154.5,164.5C160.019,164.5 164.5,160.019 164.5,154.5L164.5,21.5Z" style="fill:rgb(115,173,164);"/>
        </g>
        <path d="M84.461,19.5C84.461,19.5 49.181,71.135 19.5,97.899L19.5,29.5C19.5,23.981 23.981,19.5 29.5,19.5L84.461,19.5Z" style="fill:rgb(84,104,140);"/>
        <path d="M144.162,19.5L162.5,19.5C168.019,19.5 172.5,23.981 172.5,29.5L172.5,162.5C172.5,168.019 168.019,172.5 162.5,172.5L111.926,172.5L144.162,19.5Z" style="fill:rgb(150,223,211);"/>
        <g transform="matrix(0.804858,0,0,0.804858,19.066,19.2507)">
            <path id="L" d="M44.219,100.264L58.607,100.264L58.607,106.265L38.169,106.265L38.169,78.141L44.219,78.141L44.219,100.264Z" style="fill:white;"/>
            <g id="e">
                <path d="M65.191,99.911C66.238,101.034 67.73,101.736 69.385,101.736C71.866,101.736 73.98,100.158 74.78,97.952L79.213,101.084C77.37,104.635 73.659,107.064 69.385,107.064C63.279,107.064 58.321,102.106 58.321,96C58.321,89.894 63.279,84.936 69.385,84.936C74.666,84.936 79.088,88.644 80.187,93.596L65.191,99.911ZM73.627,92.141C72.578,90.988 71.065,90.264 69.385,90.264C66.219,90.264 63.649,92.834 63.649,96C63.649,96.114 63.653,96.227 63.659,96.338L73.627,92.141Z" style="fill:white;"/>
            </g>
            <g id="g">
                <path d="M95.911,106.154C94.563,106.739 93.076,107.064 91.513,107.064C85.407,107.064 80.449,102.106 80.449,96C80.449,89.894 85.407,84.936 91.513,84.936C93.142,84.936 94.69,85.289 96.083,85.922L98.717,83.288L102.258,86.829L100.082,89.004C101.641,90.912 102.577,93.347 102.577,96C102.577,98.409 101.805,100.639 100.496,102.457C101.805,104.274 102.577,106.504 102.577,108.913C102.577,115.02 97.619,119.977 91.513,119.977C85.407,119.977 80.449,115.02 80.449,108.913L86.321,108.913C86.321,111.779 88.648,114.105 91.513,114.105C94.379,114.105 96.705,111.779 96.705,108.913C96.705,107.9 96.414,106.954 95.911,106.154ZM91.513,90.808C94.379,90.808 96.705,93.135 96.705,96C96.705,98.865 94.379,101.192 91.513,101.192C88.648,101.192 86.321,98.865 86.321,96C86.321,93.135 88.648,90.808 91.513,90.808Z" style="fill:white;"/>
            </g>
            <g id="i">
                <rect x="104.534" y="85.807" width="6.019" height="20.458" style="fill:white;"/>
                <g transform="matrix(0.935491,0,0,0.935491,6.75031,5.37286)">
                    <circle cx="107.744" cy="80.1" r="3.189" style="fill:white;"/>
                </g>
            </g>
            <g id="m">
                <path d="M120.999,93.746L120.999,106.211L114.979,106.211L114.979,85.894C116.025,86.079 116.998,86.555 117.843,87.255C119.407,85.825 121.489,84.952 123.773,84.952C125.987,84.952 128.011,85.772 129.557,87.124C131.104,85.772 133.128,84.952 135.342,84.952C140.195,84.952 144.135,88.892 144.135,93.746L144.135,106.265L138.116,106.265L138.116,93.746C138.116,92.215 136.873,90.971 135.342,90.971C133.81,90.971 132.567,92.215 132.567,93.746L132.567,106.265L126.548,106.265L126.548,93.746C126.548,92.215 125.304,90.971 123.773,90.971C122.242,90.971 120.999,92.215 120.999,93.746Z" style="fill:white;"/>
            </g>
            <g id="i1" serif:id="i">
                <g transform="matrix(1,0,0,1,42.4514,-0.03612)">
                    <rect x="104.534" y="85.807" width="6.019" height="20.458" style="fill:white;"/>
                </g>
                <g transform="matrix(0.991127,0,0,0.991127,1.33089,0.916419)">
                    <circle cx="149.995" cy="80.1" r="3.01" style="fill:white;"/>
                </g>
            </g>
        </g>
    </g>
</svg>
